static/logos/github-wordmark-color.svg

<svg width="100" height="28" viewBox="0 0 100 28" fill="none" xmlns="http://www.w3.org/2000/svg">
<g clip-path="url(#clip0_1_2668)">
<path d="M19.2383 11.5615H10.8446C10.628 11.5615 10.4524 11.7372 10.4524 11.9539V16.0576C10.4524 16.2741 10.628 16.4504 10.8446 16.4504H14.119V21.5489C14.119 21.5489 13.3836 21.7995 11.3511 21.7995C8.95301 21.7995 5.60306 20.9233 5.60306 13.5568C5.60306 6.18865 9.09128 5.21922 12.3663 5.21922C15.2011 5.21922 16.4224 5.71839 17.1995 5.95882C17.4436 6.03369 17.6696 5.79055 17.6696 5.57383L18.6058 1.60878C18.6058 1.50749 18.5715 1.3854 18.4559 1.30241C18.1403 1.07737 16.215 0 11.3511 0C5.74767 0 0 2.38394 0 13.844C0 25.3045 6.5806 27.0123 12.126 27.0123C16.7175 27.0123 19.503 25.0501 19.503 25.0501C19.6178 24.9867 19.6301 24.8263 19.6301 24.7527V11.9539C19.6301 11.7372 19.4547 11.5615 19.2383 11.5615Z" fill="#161312"/>
<path d="M62.4961 1.37319C62.4961 1.1548 62.323 0.978638 62.1064 0.978638H57.3804C57.1644 0.978638 56.9889 1.1548 56.9889 1.37319C56.9889 1.37423 56.9902 10.5064 56.9902 10.5064H49.6235V1.37319C49.6235 1.1548 49.4496 0.978638 49.2335 0.978638H44.5077C44.2926 0.978638 44.1172 1.1548 44.1172 1.37319V26.1034C44.1172 26.3215 44.2926 26.4992 44.5077 26.4992H49.2335C49.4496 26.4992 49.6235 26.3215 49.6235 26.1034V15.5255H56.9902C56.9902 15.5255 56.9773 26.1026 56.9773 26.1034C56.9773 26.3215 57.1526 26.4992 57.3688 26.4992H62.106C62.3225 26.4992 62.4956 26.3215 62.4961 26.1034V1.37319Z" fill="#161312"/>
<path d="M28.1572 4.61834C28.1572 2.9166 26.7928 1.54138 25.1096 1.54138C23.4281 1.54138 22.0625 2.9166 22.0625 4.61834C22.0625 6.31831 23.4281 7.69721 25.1096 7.69721C26.7928 7.69721 28.1572 6.31831 28.1572 4.61834Z" fill="#161312"/>
<path d="M27.8163 20.8867C27.8163 20.2531 27.8163 9.47109 27.8163 9.47109C27.8163 9.25432 27.6413 9.07715 27.4253 9.07715H22.7142C22.498 9.07715 22.3047 9.30006 22.3047 9.51675C22.3047 9.51675 22.3047 23.2534 22.3047 25.8719C22.3047 26.3526 22.6042 26.4953 22.9919 26.4953C22.9919 26.4953 25.0027 26.4953 27.2365 26.4953C27.702 26.4953 27.8163 26.2669 27.8163 25.8642C27.8163 24.9875 27.8163 21.5532 27.8163 20.8867Z" fill="#161312"/>
<path d="M80.4554 9.11438H75.7656C75.5504 9.11438 75.3754 9.29163 75.3754 9.50977V21.6358C75.3754 21.6358 74.184 22.5075 72.4929 22.5075C70.802 22.5075 70.3531 21.7403 70.3531 20.0845C70.3531 18.4266 70.3531 9.50977 70.3531 9.50977C70.3531 9.29163 70.1784 9.11438 69.9631 9.11438H65.2033C64.9885 9.11438 64.8125 9.29163 64.8125 9.50977C64.8125 9.50977 64.8125 15.9674 64.8125 20.8852C64.8125 25.8033 67.5536 27.0065 71.3245 27.0065C74.4178 27.0065 76.912 25.2975 76.912 25.2975C76.912 25.2975 77.0308 26.198 77.0844 26.3048C77.1383 26.4113 77.2782 26.519 77.4295 26.519L80.4576 26.5057C80.6724 26.5057 80.8483 26.328 80.8483 26.1108L80.8469 9.50977C80.8469 9.29163 80.6716 9.11438 80.4554 9.11438Z" fill="#161312"/>
<path d="M91.4268 22.4926C89.8001 22.443 88.6967 21.7049 88.6967 21.7049V13.8733C88.6967 13.8733 89.7854 13.2061 91.1209 13.0869C92.8097 12.9356 94.437 13.4457 94.437 17.4744C94.437 21.7229 93.7025 22.5611 91.4268 22.4926ZM93.2766 8.55888C90.6129 8.55888 88.8012 9.74731 88.8012 9.74731V1.37319C88.8012 1.1548 88.6267 0.978638 88.4112 0.978638H83.6718C83.4563 0.978638 83.2812 1.1548 83.2812 1.37319V26.1034C83.2812 26.3215 83.4563 26.4992 83.6724 26.4992C83.6728 26.4992 86.9596 26.4992 86.9606 26.4992C87.1087 26.4992 87.2209 26.4229 87.3037 26.2892C87.3854 26.1563 87.5034 25.149 87.5034 25.149C87.5034 25.149 89.4413 26.9856 93.11 26.9856C97.417 26.9856 99.8871 24.8007 99.8871 17.1779C99.8871 9.55502 95.9421 8.55888 93.2766 8.55888Z" fill="#161312"/>
<path d="M41.4044 9.07494H37.8593C37.8593 9.07494 37.854 4.39247 37.854 4.39142C37.854 4.21421 37.7627 4.12561 37.5578 4.12561H32.7267C32.5389 4.12561 32.438 4.20819 32.438 4.38872V9.22851C32.438 9.22851 30.0171 9.81298 29.8533 9.86019C29.6903 9.90747 29.5703 10.0578 29.5703 10.2372V13.2785C29.5703 13.4972 29.745 13.6736 29.961 13.6736H32.438C32.438 13.6736 32.438 16.8546 32.438 20.9902C32.438 26.4246 36.25 26.9586 38.8224 26.9586C39.9976 26.9586 41.4036 26.581 41.6357 26.4953C41.7761 26.4437 41.8577 26.2985 41.8577 26.1408L41.8617 22.7952C41.8617 22.577 41.6773 22.4003 41.4698 22.4003C41.2633 22.4003 40.7347 22.4843 40.1906 22.4843C38.4493 22.4843 37.8593 21.6747 37.8593 20.6268C37.8593 19.5795 37.8592 13.6736 37.8592 13.6736H41.4044C41.6206 13.6736 41.7954 13.4972 41.7954 13.2785V9.469C41.7954 9.25067 41.6206 9.07494 41.4044 9.07494Z" fill="#161312"/>
</g>
<defs>
<clipPath id="clip0_1_2668">
<rect width="100" height="27.1215" fill="white"/>
</clipPath>
</defs>
</svg>

<svg xmlns="http://www.w3.org/2000/svg" width="228.571" height="64" fill="none" viewBox="0 0 100 28"><g fill="#161312" clip-path="url(#a)"><path d="M19.238 11.562h-8.393a.392.392 0 0 0-.393.392v4.104c0 .216.176.392.393.392h3.274v5.099s-.735.25-2.768.25c-2.398 0-5.748-.876-5.748-8.242 0-7.368 3.488-8.338 6.763-8.338 2.835 0 4.056.5 4.834.74.244.075.47-.168.47-.385l.936-3.965a.366.366 0 0 0-.15-.307C18.14 1.077 16.215 0 11.35 0 5.748 0 0 2.384 0 13.844c0 11.46 6.58 13.168 12.126 13.168 4.592 0 7.377-1.962 7.377-1.962.115-.063.127-.224.127-.297v-12.8a.392.392 0 0 0-.392-.391ZM62.496 1.373a.391.391 0 0 0-.39-.394H57.38a.393.393 0 0 0-.391.394l.001 9.133h-7.367V1.373a.392.392 0 0 0-.39-.394h-4.725a.393.393 0 0 0-.39.394v24.73c0 .218.175.396.39.396h4.725c.217 0 .39-.177.39-.396V15.525h7.367l-.013 10.578c0 .218.176.396.392.396h4.737c.216 0 .39-.177.39-.396V1.373ZM28.157 4.618c0-1.701-1.364-3.077-3.047-3.077-1.682 0-3.047 1.376-3.047 3.077 0 1.7 1.365 3.08 3.047 3.08 1.683 0 3.047-1.38 3.047-3.08ZM27.816 20.887V9.47a.393.393 0 0 0-.39-.394h-4.712c-.216 0-.41.223-.41.44v16.355c0 .48.3.623.688.623h4.244c.466 0 .58-.228.58-.63v-4.978ZM80.455 9.114h-4.69a.393.393 0 0 0-.39.396v12.126s-1.191.872-2.882.872-2.14-.768-2.14-2.424V9.51a.393.393 0 0 0-.39-.396h-4.76a.394.394 0 0 0-.39.396v11.375c0 4.918 2.74 6.121 6.511 6.121 3.094 0 5.588-1.709 5.588-1.709s.119.901.172 1.008a.413.413 0 0 0 .346.214l3.028-.013c.214 0 .39-.178.39-.395L80.847 9.51a.394.394 0 0 0-.392-.396ZM91.427 22.493c-1.627-.05-2.73-.788-2.73-.788v-7.832s1.088-.667 2.424-.786c1.689-.151 3.316.359 3.316 4.387 0 4.249-.734 5.087-3.01 5.019Zm1.85-13.934c-2.664 0-4.476 1.188-4.476 1.188V1.373a.392.392 0 0 0-.39-.394h-4.74a.392.392 0 0 0-.39.394v24.73c0 .218.175.396.391.396h3.289c.148 0 .26-.076.343-.21.081-.133.2-1.14.2-1.14s1.937 1.837 5.606 1.837c4.307 0 6.777-2.185 6.777-9.808 0-7.623-3.945-8.62-6.61-8.62ZM41.404 9.075H37.86l-.005-4.684c0-.177-.091-.265-.296-.265h-4.831c-.188 0-.289.082-.289.263v4.84s-2.42.584-2.585.631a.393.393 0 0 0-.283.377v3.041c0 .22.175.396.391.396h2.477v7.316c0 5.435 3.812 5.969 6.384 5.969 1.176 0 2.582-.378 2.814-.464.14-.051.222-.197.222-.354l.004-3.346a.4.4 0 0 0-.392-.395c-.207 0-.735.084-1.28.084-1.74 0-2.33-.81-2.33-1.857v-6.953h3.544a.393.393 0 0 0 .391-.396V9.47a.392.392 0 0 0-.39-.394Z"/></g><defs><clipPath id="a"><path fill="#fff" d="M0 0h100v27.122H0z"/></clipPath></defs></svg>
